306
albertroad.htmlalbertroad.htmlalbertroad.htmlalbertroad.htmlalbertroad.htmlalbertroad.htmlalbertroad.htmlalbertroad.htmlalbertroad.htmlFrom <I>De Dannan: How the West Was Won</I>
albertroad.htmlalbertroad.html

T:R na G Reel
M:4/4
L:1/8
Q:250
R:reel
D:De Dannan: How the West Was Won
Z:Devin McCabe
K:BMin
~B3d fBdf|agfe fedc|~B3d egfe|d2cA Bcdc|
!:B^ABd fBdf|agfe fedc|Bcdf egfe|1dBcA Bcdc:|2dBcA B2df|
!:ad d/2d/2d Adfa|g2fg e2fg|ad d/2d/2d Adfa|g2fg e2fg|
!ad d/2d/2d Adfa|g2fg e2fg|ad d/2d/2d Adfa|1g2fg e2fg:|2g2fg e2B^A||

%  ABC2Win Version 2.1 8/6/2000



albertroad.htmlalbertroad.htmlalbertroad.htmlalbertroad.htmlalbertroad.htmlalbertroad.html
0

